X: 10192
T: 5. ORR BRIGG -- Strathspey
C: A. W. Doig
R: strathspey
B: K\"ohler's Violin Repository, v.1, 1885 p.19 #2
F: http://www.archive.org/details/klersviolinrepos01edin
Z: 2011 John Chambers <jc:trillian.mit.edu>
N: Spaces added to break long beams for readability.
M: C
L: 1/8
K: D
uA |\
d>A G/F/E/D/ G>A F<A, | (G>A) (F>A) E>A, C<E | d>A G/F/E/D/ G>A F<D | (G>A) (A,>A) FD D :|
A |\
d>e f<A g>A f<A | a>A c<A c>d e<f | (.c>.A)(.f>.A) (3gfg (3bag | (3fed (3cde d2 (dA) |
(.d>A) (f>.A) (.g>.A) (.a>.A) | (3bge (3fed c<e e>g | (3fdf (3ece (3dcB (3A^GA | (3Bcd (3efg "_Segue Reel"fd d |]

%%sep 2 1 500

